!!! OTL: Shou^,Wan\,Shou^ (Hand hold hand)
!!! Yec: Copyright 2001, CHia-wei Lee
!! For Voice Only
!! [Allegro]
**kern	**silbe
*clefG2	*LXinhua
*G:	*ping-ying
*M2/4	*
=17	=17
[2dd	Ai\
=18	=18
2dd	|
=19	=19
2dd	|
=20	=20
2dd	|
=21	=21
4dd	Mei^
8dd	Li\
8dd	De
=22	=22
4cc	Gu-
(8cc	Niang/
8cc)	|
=23	=23
8b	Jian\
16b	Guo\
16cc	|
8b	Wan\
8b	Wan\
=24	=24
4.a	Qian-,
16r	|
16r	|
=25	=25
8b	Zhi^
8b	You^
8b	Nian^
8b	|
=26	=26
(8cc	Yi-
8cc)	Ge\
(8cc	Ren/
8cc)	A
=27	=27
8b	Zei\
16b	Giao\
16cc	Ren/
(8b	Ai\
8a)	|
=28	=28
4.g	Lian\,
16a	Ni^
16g	Xiang\
=29	=29
4f#	Zao^
8f#	Chen/
8f#	De
=30	=30
4e	Tai\
4e	Yang/
=31	=31
8f#	Wu/
16f#	Bi^
16e	Ge
(8f#	xing
8g)	|
=32	=32
4.a	Xian-
(16g	Ni^
16a)	De
=33	=33
(8b	Rong/
16b	Mao\
16cc)	|
8b	Bi^
8a	Na\
=34	=34
(8a	Xian
8g)	|
4f#	Hua-
=35	=35
8e	Hai/
(16e	Yao\
16f#)	|
(8e	Sian
8d)	|
=36	=36
4.d	Yan\,
*-	*-
